Papirus/24x24/apps/converseen.svg

<?xml version="1.0" encoding="UTF-8" standalone="no"?>
<svg xmlns="http://www.w3.org/2000/svg" height="24" width="24" version="1">
 <g transform="translate(1,1)">
  <ellipse rx="9" ry="8" cy="11" cx="11" fill="#ccc"/>
  <g fill="#9ccd44" transform="matrix(.5 0 0 .50043 -2.5 -1.0017)">
   <path transform="translate(2)" d="m21 4v3c-9.389 0-16 7.611-16 17 0 5.6431 2.75 10.644 6.9824 13.736 1.9893 1.2887 4.3615-3.0761 2.0391-4.7715-2.468-2.197-4.022-5.399-4.022-8.964 0-6.627 4.3732-12 11-12v3c4.1259-1.5684 8.0587-3.5295 12-5.5-3.8714-2.1174-7.943-3.7836-12-5.5z"/>
  </g>
  <g fill="#5db43e" transform="matrix(-.5 0 0 -.50043 24.5 23.002)">
   <path d="m21 4v3c-9.389 0-16 7.611-16 17 0 5.6431 2.75 10.644 6.9824 13.736 1.9893 1.2887 4.3615-3.0761 2.0391-4.7715-2.468-2.197-4.022-5.399-4.022-8.964 0-6.627 4.3732-12 11-12v3c4.1259-1.5684 8.0587-3.5295 12-5.5-3.8714-2.1174-7.943-3.7836-12-5.5z" transform="translate(2)"/>
  </g>
  <g fill="#cde6a0" transform="matrix(.5 0 0 .50043 -2.5 -.50174)">
   <path opacity=".2" d="m15.502 4.4961c-1.805 0.9015-3.612 1.7908-5.502 2.5098v0.5c2.063-0.7849 4.029-1.7678 6-2.7539-0.164-0.0898-0.333-0.1692-0.498-0.2559zm-5.502 1.0078c-3.3135 0-5.5 2.6895-5.5 6.0059 0 0.0739 0.00907 0.1455 0.011719 0.21875 0.1209-3.1843 2.2698-5.7241 5.4883-5.7241v-0.5zm7.0352 0.77539c-0.06777 0.45354 0.03906 0.92402 0.45312 1.2266 1.1829 1.0539 1.9388 2.5705 2 4.2656 0.004-0.094 0.012-0.187 0.012-0.282 0-1.7838-0.778-3.3847-2.012-4.4841-0.26-0.1905-0.4-0.4486-0.453-0.7266zm-15.021 5.4437c-0.0028 0.095-0.0137 0.188-0.0137 0.285 0 2.824 1.374 5.3277 3.4902 6.875 0.76328 0.4949 1.6306-0.67362 1.4727-1.6289-0.1361 0.806-0.8408 1.538-1.4727 1.129-2.0617-1.508-3.408-3.926-3.4765-6.66zm19.973 0.05469c-0.133 4.565-3.389 8.22-7.987 8.22v0.5c4.6945 0 8-3.8073 8-8.5059 0-0.07273-0.01186-0.14255-0.01367-0.21484zm-13.489 7.226c-0.1655 0.083-0.3325 0.161-0.498 0.244 1.9357 1.06 3.972 1.893 6 2.752v-0.5c-1.856-0.786-3.715-1.56-5.502-2.496z" fill="#000" transform="matrix(2 0 0 1.9983 3 .0034689)"/>
  </g>
  <g fill="#fff" transform="matrix(.5 0 0 .50043 -2.5 -1.0017)">
   <path d="M 10 2 L 10 2.5 C 11.8565 3.2861573 13.715453 4.0596851 15.501953 4.9960938 C 15.666953 4.913393 15.834 4.8347539 16 4.7519531 C 14.064 3.6923433 12.028 2.858908 10 2 z M 10 3.5019531 C 5.3055 3.5019531 2 7.3091691 2 12.007812 C 2 12.080543 2.0118599 12.150366 2.0136719 12.222656 C 2.1456719 7.6571143 5.4018 4.0019531 10 4.0019531 L 10 3.5019531 z M 18.130859 5 C 17.477859 4.9982985 16.882156 5.9734895 17.035156 6.7792969 C 17.134156 6.1198908 17.610859 5.4985998 18.130859 5.5 C 18.256219 5.5003358 18.383482 5.5365727 18.507812 5.6171875 C 20.569513 7.1247013 21.917728 9.5425183 21.986328 12.277344 C 21.989328 12.182343 22 12.089188 22 11.992188 C 22 9.1683611 20.623812 6.664502 18.507812 5.1171875 C 18.382812 5.0365867 18.255859 5.0003 18.130859 5 z" transform="matrix(2,0,0,1.9982815,3,0.00339708)" style="fill:#ffffff;fill-opacity:1;opacity:0.1"/>
  </g>
 </g>
</svg>

<?xml version="1.0" encoding="UTF-8" standalone="no"?>
<svg xmlns="http://www.w3.org/2000/svg" height="24" width="24" version="1">
 <g transform="translate(1,1)">
  <ellipse rx="9" ry="8" cy="11" cx="11" fill="#ccc"/>
  <g fill="#9ccd44" transform="matrix(.5 0 0 .50043 -2.5 -1.0017)">
   <path transform="translate(2)" d="m21 4v3c-9.389 0-16 7.611-16 17 0 5.6431 2.75 10.644 6.9824 13.736 1.9893 1.2887 4.3615-3.0761 2.0391-4.7715-2.468-2.197-4.022-5.399-4.022-8.964 0-6.627 4.3732-12 11-12v3c4.1259-1.5684 8.0587-3.5295 12-5.5-3.8714-2.1174-7.943-3.7836-12-5.5z"/>
  </g>
  <g fill="#5db43e" transform="matrix(-.5 0 0 -.50043 24.5 23.002)">
   <path d="m21 4v3c-9.389 0-16 7.611-16 17 0 5.6431 2.75 10.644 6.9824 13.736 1.9893 1.2887 4.3615-3.0761 2.0391-4.7715-2.468-2.197-4.022-5.399-4.022-8.964 0-6.627 4.3732-12 11-12v3c4.1259-1.5684 8.0587-3.5295 12-5.5-3.8714-2.1174-7.943-3.7836-12-5.5z" transform="translate(2)"/>
  </g>
  <g fill="#cde6a0" transform="matrix(.5 0 0 .50043 -2.5 -.50174)">
   <path opacity=".2" d="m15.502 4.4961c-1.805 0.9015-3.612 1.7908-5.502 2.5098v0.5c2.063-0.7849 4.029-1.7678 6-2.7539-0.164-0.0898-0.333-0.1692-0.498-0.2559zm-5.502 1.0078c-3.3135 0-5.5 2.6895-5.5 6.0059 0 0.0739 0.00907 0.1455 0.011719 0.21875 0.1209-3.1843 2.2698-5.7241 5.4883-5.7241v-0.5zm7.0352 0.77539c-0.06777 0.45354 0.03906 0.92402 0.45312 1.2266 1.1829 1.0539 1.9388 2.5705 2 4.2656 0.004-0.094 0.012-0.187 0.012-0.282 0-1.7838-0.778-3.3847-2.012-4.4841-0.26-0.1905-0.4-0.4486-0.453-0.7266zm-15.021 5.4437c-0.0028 0.095-0.0137 0.188-0.0137 0.285 0 2.824 1.374 5.3277 3.4902 6.875 0.76328 0.4949 1.6306-0.67362 1.4727-1.6289-0.1361 0.806-0.8408 1.538-1.4727 1.129-2.0617-1.508-3.408-3.926-3.4765-6.66zm19.973 0.05469c-0.133 4.565-3.389 8.22-7.987 8.22v0.5c4.6945 0 8-3.8073 8-8.5059 0-0.07273-0.01186-0.14255-0.01367-0.21484zm-13.489 7.226c-0.1655 0.083-0.3325 0.161-0.498 0.244 1.9357 1.06 3.972 1.893 6 2.752v-0.5c-1.856-0.786-3.715-1.56-5.502-2.496z" fill="#000" transform="matrix(2 0 0 1.9983 3 .0034689)"/>
  </g>
  <g fill="#fff" transform="matrix(.5 0 0 .50043 -2.5 -1.0017)">
   <path opacity=".2" d="m10 2v0.5c1.8565 0.78615 3.7155 1.5597 5.502 2.4961 0.165-0.0827 0.332-0.1613 0.498-0.2441-1.936-1.0596-3.972-1.8931-6-2.752zm0 1.502c-4.6945 0-8 3.8073-8 8.5059 0 0.07273 0.01186 0.14255 0.013672 0.21484 0.132-4.5655 3.3881-8.221 7.9863-8.221v-0.5zm8.131 1.498c-0.653-0.0017-1.249 0.9735-1.096 1.7793 0.099-0.6594 0.576-1.2807 1.096-1.2793 0.12536 0.0003359 0.25262 0.036574 0.37695 0.11719 2.0617 1.5075 3.4099 3.9254 3.4785 6.6602 0.003-0.095 0.014-0.188 0.014-0.285 0-2.8238-1.376-5.3275-3.492-6.8748-0.125-0.0806-0.252-0.1169-0.377-0.1172zm-13.619 7.229c-0.0035 0.093-0.0117 0.186-0.0117 0.281 0 1.784 0.77772 3.3849 2.0117 4.4844 0.27011 0.19736 0.40329 0.4702 0.45117 0.75976 0.078165-0.46295-0.027622-0.9503-0.45117-1.2598-1.1829-1.0539-1.9388-2.5705-2-4.2656zm14.977 0.04297c-0.122 3.184-2.27 5.724-5.489 5.724v0.5c3.3135 0 5.5-2.6895 5.5-6.0059 0-0.0739-0.0091-0.1455-0.01172-0.21875zm-5.489 4.222c-2.063 0.78486-4.0295 1.7678-6 2.7539 0.16404 0.08979 0.33264 0.16916 0.49805 0.25586 1.805-0.902 3.612-1.791 5.502-2.51v-0.5z" transform="matrix(2 0 0 1.9983 3 .0034689)"/>
  </g>
 </g>
</svg>
